X:1
T:Concerto In A Minor
T:Concerto In A Minor
T:Theme from first movement
T:Eduard Grieg
C:Eduard Grieg
Z:All Rights Reserved
L:1/8
M:4/4
K:C
V:1 treble 
%%MIDI program 40
%%MIDI control 7 100
%%MIDI control 10 64
V:1
"Am" a'6 a'^g' |"E7" e'6 e'c' |"Am" a2 a^g"E7" e2 ec |"Am" A2 A^G"E7" E2 EC |"Am" A,2 a6 |: %5
"Am" e4"Dm" f3 g | f2"Am" e6 | e3"Dm" f f2 g2 |"Am" e8 |"C" g4"F" a3 b | a2"C" g6 | g3"F" a a2 b2 | %12
"C" g8 |"E7" E4"Dm" F4 |"E7" B8 |"A" A4"Gm" _B4 |"A7" e8 |"Dm" f4"Am" e4 |"Dm" A2 Bc B2 d2 | %19
"Fm" _A6"Cdim" =A2 |"Am" c4"E7" B4 | E4"Dm" F4 |"E7" B8 |"A" A4"Gm" _B4 |"A7" e8 |"Dm" f4"Am" e4 | %26
"Dm" A2 Bc B2 d2 |"Fm" _A6"Cdim" =A2 |"Am" c4"E7" B4 :|"Am" a6"E7" a^g | e6 ec | %31
"Am" A2 A^G"E7" E2 EC |"Am" A,2 z2"E7" e2 z2 |"Am" a8- | a2 z2 z4 |] %35

